public/assets/7.svg

<svg width="194" height="200" viewBox="0 0 194 200" fill="none" xmlns="http://www.w3.org/2000/svg">
<g filter="url(#filter0_d)">
<path d="M30.0743 155.052L46.8249 27.4951L158.459 17.0735L158.459 169.225L30.0743 155.052Z" fill="#FFF1F0"/>
</g>
<path d="M90.1073 61.32L73.4273 60.72L71.9873 80.28L73.0673 82.08L86.3873 80.64H99.4673L77.8673 125.88L79.3073 129.48L98.0273 134.64L106.427 112.32L122.147 78.12V61.08L115.307 61.32H90.1073Z" fill="#3F7AD3"/>
<defs>
<filter id="filter0_d" x="0.539062" y="0" width="193" height="199.028" filterUnits="userSpaceOnUse" color-interpolation-filters="sRGB">
<feFlood flood-opacity="0" result="BackgroundImageFix"/>
<feColorMatrix in="SourceAlpha" type="matrix" values="0 0 0 0 0 0 0 0 0 0 0 0 0 0 0 0 0 0 127 0"/>
<feOffset/>
<feGaussianBlur stdDeviation="2.5"/>
<feColorMatrix type="matrix" values="0 0 0 0 0 0 0 0 0 0 0 0 0 0 0 0 0 0 0.25 0"/>
<feBlend mode="normal" in2="BackgroundImageFix" result="effect1_dropShadow"/>
<feBlend mode="normal" in="SourceGraphic" in2="effect1_dropShadow" result="shape"/>
</filter>
</defs>
</svg>

<svg width="194" height="200" fill="none" xmlns="http://www.w3.org/2000/svg"><g filter="url(#filter0_d)"><path d="M30.074 155.052l16.75-127.557L158.46 17.073v152.152L30.074 155.052z" fill="#FFF1F0"/></g><path d="M90.107 61.32l-16.68-.6-1.44 19.56 1.08 1.8 13.32-1.44h13.08l-21.6 45.24 1.44 3.6 18.72 5.16 8.4-22.32 15.72-34.2V61.08l-6.84.24h-25.2z" fill="#3F7AD3"/><defs><filter id="filter0_d" x=".539" y="0" width="193" height="199.028" filterUnits="userSpaceOnUse" color-interpolation-filters="sRGB"><feFlood flood-opacity="0" result="BackgroundImageFix"/><feColorMatrix in="SourceAlpha" values="0 0 0 0 0 0 0 0 0 0 0 0 0 0 0 0 0 0 127 0"/><feOffset/><feGaussianBlur stdDeviation="2.5"/><feColorMatrix values="0 0 0 0 0 0 0 0 0 0 0 0 0 0 0 0 0 0 0.25 0"/><feBlend in2="BackgroundImageFix" result="effect1_dropShadow"/><feBlend in="SourceGraphic" in2="effect1_dropShadow" result="shape"/></filter></defs></svg>
